svgs/sharp-light/handshake.svg

<svg xmlns="http://www.w3.org/2000/svg" viewBox="0 0 640 512"><!--! Font Awesome Pro 6.6.0 by @fontawesome - https://fontawesome.com License - https://fontawesome.com/license (Commercial License) Copyright 2024 Fonticons, Inc. --><path d="M217.3 64l55.3 0-32 32-17.5 0-71.7 60.2-4.5 3.8-2.9 0 0-39.3 63-52.9 4.5-3.8 5.8 0zm-91 288L112 352l0 32 0 32-32 0-48 0L0 416l0-32L0 160l0-32 32 0 48 0 32 0 0 32 0 160 20.9 0 6.6 0 4.7 4.7 52 52.1 7 7 11.3 11.3 32.6 32.6 29-29 11.3-11.3 11.3 11.3 26.6 26.6L361 389.7l11.3-11.3 11.3 11.3L399 405l61.3-61.3L348.1 231.7l-77.7 71.7-11.9 11-10.8-12-68.2-75.7L169.1 215l11.4-10.7L324.8 68.3l4.6-4.3 6.3 0 85.6 0 5.8 0 4.5 3.8L496 121.8l0 38.2-4.3 0-4.5-3.8L415.5 96l-73.4 0L213.8 216.8l46.9 52 98.1-90.6 11.8-10.9 21.7 23.5-11.8 10.9-8.8 8.1L480.5 318.8l7.5 0 40 0L528 160l0-32 32 0 48 0 32 0 0 32 0 224 0 32-32 0-48 0-32 0 0-32 0-33.2-29.6 0-4.2 4.2L410.3 439 399 450.3 387.6 439l-15.3-15.3-35.6 35.6-11.3 11.3-11.3-11.3-26.6-26.6-29 29-11.3 11.3-11.3-11.3L192 417.7l-11.3-11.3-7-7L126.3 352zM80 160l-48 0 0 224 48 0 0-224zm528 0l-48 0 0 224 48 0 0-224z"/></svg>

<svg xmlns="http://www.w3.org/2000/svg" viewBox="0 0 640 512"><!--! Font Awesome Pro 6.4.2 by @fontawesome - https://fontawesome.com License - https://fontawesome.com/license (Commercial License) Copyright 2023 Fonticons, Inc. --><path d="M217.3 64h55.3l-32 32H223.1l-71.7 60.2-4.5 3.8H144V120.7l63-52.9 4.5-3.8h5.8zm-91 288H112v32 32H80 32 0V384 160 128H32 80h32v32V320h20.9 6.6l4.7 4.7 52 52.1 7 7 11.3 11.3 32.6 32.6 29-29 11.3-11.3 11.3 11.3 26.6 26.6L361 389.7l11.3-11.3 11.3 11.3L399 405l61.3-61.3L348.1 231.7l-77.7 71.7-11.9 11-10.8-12-68.2-75.7L169.1 215l11.4-10.7L324.8 68.3l4.6-4.3h6.3 85.6 5.8l4.5 3.8L496 121.8V160h-4.3l-4.5-3.8L415.5 96H342.1L213.8 216.8l46.9 52 98.1-90.6 11.8-10.9 21.7 23.5-11.8 10.9-8.8 8.1L480.5 318.8H488h40V160 128h32 48 32v32V384v32H608 560 528V384 350.8H498.4l-4.2 4.2L410.3 439 399 450.3 387.6 439l-15.3-15.3-35.6 35.6-11.3 11.3-11.3-11.3-26.6-26.6-29 29-11.3 11.3-11.3-11.3L192 417.7l-11.3-11.3-7-7L126.3 352zM80 160H32V384H80V160zm528 0H560V384h48V160z"/></svg>
